X: 54
T:Astley's Ride. HS.54
M:C|
L:1/8
Q:200
S:Henry Stables MS,Cumbria,late19thC
R:Misc.
O:Walthwaite,nr.Ambleside.
A:England
Z:vmp.Chris Partington
K:Bb
fd|B2B2B2AB|c2c2c2ec|BAGF GBAc|Bcde fdec|!
B2B2B2AB|c2c2c2ec|BAGF GBAc|B2B2B2::!
Bc|d2d2d2cd|e2e2e2ge|c2c2c2Bc|d2d2d2fd|!
B2B2B2AB|c2c2c2ec|BAGF GBAc|B2B2B2:||
